X: 7924
T: Concert, The
R: reel
M: 4/4
K: Adorian
|:BAGB AE~E2|GABG ~A3B|dBAB G3B|d2eB dBAc|
BAGB AE~E2|GABG ABcd|ea~a2 gedB|1 GBdB BAAG:|2 GBdB BAA2||
|:ea~a2 ea~a2|edef ged2|eg~g2 a2ga|bgab ged2|
ea~a2 eA~A2|edef gede|g3e dege|1 dBGA BAA2:|2 dBGA BAdB||

